packages/trader/src/Assets/SvgComponents/contract_details/dark/ic-safeguard.svg

<svg width="24" height="24" viewBox="0 0 24 24" fill="none" xmlns="http://www.w3.org/2000/svg">
<path d="M20 0H4C1.79086 0 0 1.79086 0 4V20C0 22.2091 1.79086 24 4 24H20C22.2091 24 24 22.2091 24 20V4C24 1.79086 22.2091 0 20 0Z" fill="#151717"/>
<path d="M12 7.53C13.2037 8.32781 14.5702 8.84708 16 9.05C16.1016 10.5936 15.9186 12.1426 15.46 13.62C15.1948 14.3409 14.7671 14.9911 14.21 15.52C13.5681 16.1118 12.8176 16.5736 12 16.88C11.1842 16.5701 10.4343 16.1086 9.79 15.52C9.23781 14.9929 8.81364 14.3464 8.55 13.63C8.08818 12.1498 7.90176 10.5975 8 9.05C9.42977 8.84708 10.7963 8.32781 12 7.53ZM12 4C11.7379 3.99824 11.4847 4.09455 11.29 4.27C10.0499 5.46505 8.40202 6.14422 6.68 6.17C5.76645 6.18564 5.02658 6.9167 5 7.83C5 8.01 5 8.17 5 8.33C4.83653 10.4666 5.08087 12.6147 5.72 14.66C6.15281 15.7976 6.83641 16.823 7.72 17.66C8.84022 18.6781 10.1672 19.4422 11.61 19.9H11.77L12 20H12.22H12.38C13.818 19.538 15.1409 18.7743 16.26 17.76C17.1463 16.9252 17.8303 15.8992 18.26 14.76C18.9166 12.6874 19.1679 10.5077 19 8.34C19 8.18 19 8.02 19 7.84C18.9745 6.94169 18.2579 6.21642 17.36 6.18C15.6463 6.15188 14.0066 5.47672 12.77 4.29C12.5668 4.08733 12.2864 3.9817 12 4Z" fill="#FFF" />
</svg>

<svg width="24" height="24" fill="none" xmlns="http://www.w3.org/2000/svg"><path d="M20 0H4a4 4 0 00-4 4v16a4 4 0 004 4h16a4 4 0 004-4V4a4 4 0 00-4-4z" fill="#151717"/><path d="M12 7.53a9.71 9.71 0 004 1.52 12.62 12.62 0 01-.54 4.57 5 5 0 01-1.25 1.9A6.76 6.76 0 0112 16.88a6.92 6.92 0 01-2.21-1.36 5 5 0 01-1.24-1.89A12.68 12.68 0 018 9.05a9.71 9.71 0 004-1.52zM12 4a1.05 1.05 0 00-.71.27 6.79 6.79 0 01-4.61 1.9A1.71 1.71 0 005 7.83v.5a16.9 16.9 0 00.72 6.33 8.1 8.1 0 002 3 10.51 10.51 0 003.89 2.24h.16l.23.1h.38a10.61 10.61 0 003.88-2.24 8 8 0 002-3c.657-2.073.908-4.252.74-6.42v-.5a1.71 1.71 0 00-1.64-1.66 6.79 6.79 0 01-4.59-1.89A1 1 0 0012 4z" fill="#FFF"/></svg>
